libs/ui/packages/crypto-icons/src/svg/SYS.svg

<svg width="24" height="24" stroke-miterlimit="10" version="1.1" viewBox="0 0 24 24" xml:space="preserve" xmlns="http://www.w3.org/2000/svg" xmlns:xlink="http://www.w3.org/1999/xlink">
<path d="M13.597 7.74509C11.2907 7.83714 10.8591 9.70016 13.3804 10.9614C17.0538 12.7991 17.4131 15.8601 15.1065 17.6348C15.0287 17.6947 14.9474 17.7538 14.8634 17.8106C14.8594 17.8132 14.8552 17.8151 14.8513 17.8178C14.7167 17.9044 14.5867 17.9966 14.4445 18.073C14.3741 18.1118 14.2943 18.1445 14.2206 18.1813C14.207 18.188 14.1932 18.194 14.1796 18.2006C14.1149 18.2318 14.0557 18.2731 13.9895 18.3017C13.9194 18.3333 13.85 18.3631 13.7776 18.3932C13.766 18.3955 13.7571 18.4029 13.7463 18.4052C13.2902 18.5885 12.7849 18.7369 12.2248 18.8409C10.2596 19.2123 7.6609 19.0577 4.51622 18.0585C5.77194 19.0269 7.11663 19.6709 8.47404 20.0422C9.96009 20.4505 11.4606 20.5367 12.8796 20.3672C12.8827 20.3672 12.8886 20.3671 12.8917 20.3648C13.1028 20.3425 13.3095 20.3096 13.5152 20.2734C14.3403 20.1301 15.1323 19.8998 15.8673 19.6017L15.8697 19.6017C16.2695 19.4384 16.6545 19.2554 17.0204 19.0528C17.6113 18.7261 18.1507 18.3519 18.6238 17.9406C21.344 15.5763 21.6028 12.2215 19.2015 9.9527C18.4019 9.19644 17.2926 8.57203 15.8986 8.13269C15.7571 8.0881 15.6274 8.03593 15.4797 7.99546C14.761 7.79887 14.1293 7.72385 13.597 7.74509Z" fill="#000000" fill-rule="nonzero" opacity="1" stroke="none"/>
<path d="M12.1526 3.55616C11.8049 3.56674 11.4594 3.59266 11.1198 3.6332C10.9049 3.65862 10.6938 3.68847 10.4842 3.72468C9.65839 3.86874 8.86712 4.09985 8.13218 4.39876C8.13064 4.39876 8.13131 4.39722 8.12977 4.39876C7.07975 4.82478 6.14297 5.39351 5.37567 6.05989C1.66014 9.29162 2.53702 14.3726 8.51978 16.0074C8.87492 16.1052 9.21003 16.172 9.52127 16.212C12.5681 16.6057 13.4332 14.4481 10.6191 13.039C9.90106 12.6808 9.3099 12.2714 8.83996 11.8377C8.83842 11.8362 8.83756 11.8377 8.83756 11.8377C6.51333 9.68914 7.16497 6.85376 10.2218 5.60729C10.2326 5.60267 10.2431 5.59911 10.2531 5.59525C12.3093 4.7671 15.4434 4.6577 19.4832 5.94192C17.1839 4.16505 14.5865 3.48211 12.1526 3.55616Z" fill="#000000" fill-rule="nonzero" opacity="1" stroke="none"/>
</svg>

<svg xmlns="http://www.w3.org/2000/svg" xml:space="preserve" width="24" height="24" viewBox="0 0 24 24" stroke-miterlimit="10"><path d="M13.597 7.745c-2.306.092-2.738 1.955-.217 3.216 3.674 1.838 4.033 4.9 1.726 6.674q-.116.09-.243.176l-.012.007c-.134.086-.264.179-.407.255-.07.039-.15.072-.223.108l-.041.02c-.065.03-.124.072-.19.1q-.105.047-.212.092c-.012.002-.02.01-.032.012a8 8 0 0 1-1.521.436c-1.965.371-4.564.217-7.709-.783a11.38 11.38 0 0 0 8.376 2.307q.315-.035.623-.092a11.5 11.5 0 0 0 2.352-.671h.003q.6-.246 1.15-.55a9.3 9.3 0 0 0 1.604-1.111c2.72-2.365 2.979-5.72.578-7.988-.8-.757-1.91-1.381-3.303-1.82-.142-.045-.272-.097-.42-.138-.718-.196-1.35-.271-1.882-.25"/><path d="M12.153 3.556a11.7 11.7 0 0 0-4.02.843H8.13a9.9 9.9 0 0 0-2.754 1.66C1.66 9.293 2.537 14.374 8.52 16.008q.534.146 1.001.205c3.047.394 3.912-1.764 1.098-3.173a7.6 7.6 0 0 1-1.779-1.201q-.003-.002-.002 0c-2.325-2.149-1.673-4.984 1.384-6.23l.031-.013c2.056-.828 5.19-.937 9.23.347a11.3 11.3 0 0 0-7.33-2.386"/></svg>
